assets/svg/autorenew.svg

<!-- Generated by IcoMoon.io -->
<svg version="1.1" xmlns="http://www.w3.org/2000/svg" width="24" height="24" viewBox="0 0 24 24">
<title>autorenew</title>
<path d="M18.75 7.734q1.266 1.922 1.266 4.266 0 3.281-2.367 5.648t-5.648 2.367v3l-3.984-4.031 3.984-3.984v3q2.484 0 4.242-1.758t1.758-4.242q0-1.406-0.703-2.813zM12 6q-2.484 0-4.242 1.758t-1.758 4.242q0 1.5 0.703 2.813l-1.453 1.453q-1.266-1.922-1.266-4.266 0-3.281 2.367-5.648t5.648-2.367v-3l3.984 4.031-3.984 3.984v-3z"></path>
</svg>

<svg xmlns="http://www.w3.org/2000/svg" viewBox="0 0 24 24"><path d="M18.75 7.734Q20.016 9.656 20.016 12q0 3.281-2.367 5.648t-5.648 2.367v3l-3.984-4.031L12.001 15v3q2.484 0 4.242-1.758T18.001 12q0-1.406-.703-2.813zM12 6Q9.516 6 7.758 7.758T6 12q0 1.5.703 2.813L5.25 16.266Q3.984 14.344 3.984 12q0-3.281 2.367-5.648t5.648-2.367v-3l3.984 4.031L11.999 9V6z"/></svg>
